X: 31107
T: Paddy Fahey's
R: jig
M: 6/8
K: Gmajor
|:dgc ABG|cBA DFA|dfa gfg|cBc ABc|
dgc ABG|cBA DFA|dfa gfd|cAF G3:|
|:g2a bga|fge fdc|ABG DFA|dfa gfd|
g2a bga|efe fdc|BAG AGF|DGF G3:|

